!!!COM: Aaron Copland
!!!OTL: [T711_Cop-w25p3m42-49]
**kern	**kern	**dynam	**kern	**dynam
*grp:A	*grp:A	*	*grp:B	*
*part2	*part2	*part2	*part1	*
*staff3	*staff2	*	*staff1	*
*I"Piano	*	*	*I"Violin	*
*I'Pno.	*	*	*I'Vln.	*
*clefG2	*clefG2	*	*clefG2	*
*k[]	*k[]	*	*k[]	*
*C:	*C:	*	*C:	*
*M4/4	*M4/4	*	*M4/4	*
=1	=1	=1	=1	=1
!	!	!LO:DY:t=[ %s ]	!LO:TX:t=[[half]=84]	!LO:DY:t=[ %s ]
8ryy	4ryy	4ryy	(4ee	4ryy
4ryy	.	.	.	.
.	4ryy	4ryy	4gg	.
8ryy	.	.	.	.
2ryy	8ryy	.	2ddd)	.
.	8ryy	.	.	.
.	8ryy	.	.	.
.	8ryy	.	.	.
=2	=2	=2	=2	=2
8ryy	2ryy	.	(4ccc#X	.
8ryy	.	.	.	.
8ryy	.	.	4aa	.
8ryy	.	.	.	.
8ryy	2ryy	.	2ee)	.
4ryy	.	.	.	.
8ryy	.	.	.	.
=3	=3	=3	=3	=3
2ryy	8ryy	.	2ddd	.
.	8ryy	.	.	.
.	8ryy	.	.	.
.	8ryy	.	.	.
8ryy	2ryy	.	(4ccc#X	.
8ryy	.	.	.	.
8ryy	.	.	4aa)	.
8ryy	.	.	.	.
=4	=4	=4	=4	=4
8ryy	2ryy	.	2fff	.
4ryy	.	.	.	.
8ryy	.	.	.	.
2ryy	8ryy	.	(4eee	.
.	8ryy	.	.	.
.	8ryy	.	4cccnZ)	.
.	8ryy	.	.	.
!!linebreak:original
=5	=5	=5	=5	=5
8ryy	2ryy	.	2aa	.
8ryy	.	.	.	.
8ryy	.	.	.	.
8ryy	.	.	.	.
8ryy	2ryy	.	(4gg	.
4ryy	.	.	.	.
.	.	.	4dd)	.
8ryy	.	.	.	.
=6	=6	=6	=6	=6
2ryy	4ryy	.	(4cc	.
.	4ryy	.	4ff)	.
8ryy	4ryy	.	(4aa	.
8ryy	.	.	.	.
8ryy	4ryy	.	4ddd)	.
8ryy	.	.	.	.
=7	=7	=7	=7	=7
8ryy	2ryy	.	(2fff#X	.
4ryy	.	.	.	.
8ryy	.	.	.	.
2ryy	8ryy	.	2eee)	.
.	8ryy	.	.	.
.	8ryy	.	.	.
.	8ryy	.	.	.
=8	=8	=8	=8	=8
8ryy	2ryy	.	(4ddd	.
8ryy	.	.	.	.
8ryy	.	.	4aa	.
8ryy	.	.	.	.
8ryy	4ryy	.	2gg)	.
4ryy	.	.	.	.
.	4ryy	.	.	.
8ryy	.	.	.	.
=	=	=	=	=
*-	*-	*-	*-	*-
!!!system-decoration: s1[({(s2,s3)})]
!!!RDF**kern: Z = editorial accidental, parentheses
!!!RDF**kern: i = marked note, color="hotpink", text="extra("
!!!RDF**kern: j = marked note, color="magenta", text="extra)"
!!!EED:Jason Lee
!!!EEV:2021/12/13
